flaticon/business/notes-2.svg

<svg xmlns="http://www.w3.org/2000/svg" width="32" height="32" viewBox="0 0 24 24">
    <path d="M 14.898438 1.863281 L 0 1.863281 L 0 22.136719 L 24 22.136719 L 24 1.863281 Z M 14.070312 2.691406 L 14.070312 15.101562 L 9.929688 15.101562 L 9.929688 2.691406 Z M 15.222656 5.128906 C 15.328125 5.21875 15.425781 5.3125 15.523438 5.410156 C 15.574219 5.460938 15.621094 5.507812 15.667969 5.5625 C 15.757812 5.65625 15.839844 5.757812 15.917969 5.859375 C 15.964844 5.917969 16.011719 5.976562 16.054688 6.039062 C 16.125 6.136719 16.1875 6.242188 16.25 6.34375 C 16.292969 6.414062 16.335938 6.484375 16.378906 6.558594 C 16.429688 6.660156 16.476562 6.765625 16.523438 6.867188 C 16.558594 6.949219 16.597656 7.027344 16.628906 7.105469 C 16.671875 7.214844 16.703125 7.324219 16.738281 7.433594 C 16.761719 7.519531 16.792969 7.597656 16.8125 7.683594 C 16.84375 7.808594 16.867188 7.933594 16.886719 8.0625 C 16.898438 8.136719 16.917969 8.207031 16.925781 8.28125 C 16.953125 8.484375 16.964844 8.6875 16.964844 8.898438 C 16.964844 9.105469 16.953125 9.308594 16.925781 9.511719 C 16.917969 9.585938 16.898438 9.65625 16.886719 9.730469 C 16.867188 9.859375 16.84375 9.984375 16.8125 10.109375 C 16.792969 10.195312 16.761719 10.273438 16.738281 10.359375 C 16.703125 10.46875 16.671875 10.578125 16.628906 10.6875 C 16.597656 10.769531 16.558594 10.84375 16.523438 10.925781 C 16.476562 11.03125 16.429688 11.132812 16.378906 11.234375 C 16.339844 11.308594 16.292969 11.378906 16.25 11.449219 C 16.1875 11.550781 16.125 11.65625 16.054688 11.753906 C 16.011719 11.816406 15.964844 11.875 15.917969 11.933594 C 15.839844 12.035156 15.757812 12.136719 15.667969 12.234375 C 15.621094 12.285156 15.574219 12.332031 15.523438 12.382812 C 15.425781 12.480469 15.328125 12.574219 15.222656 12.664062 C 15.171875 12.707031 15.121094 12.746094 15.070312 12.789062 C 15.011719 12.832031 14.953125 12.871094 14.898438 12.910156 L 14.898438 4.882812 C 14.953125 4.921875 15.015625 4.960938 15.070312 5.003906 C 15.121094 5.046875 15.171875 5.085938 15.222656 5.128906 Z M 16.050781 4.757812 L 18.628906 4.757812 C 18.730469 6.078125 19.785156 7.132812 21.101562 7.234375 L 21.101562 10.558594 C 19.785156 10.660156 18.730469 11.714844 18.628906 13.035156 L 16.050781 13.035156 C 16.050781 13.03125 16.054688 13.03125 16.054688 13.03125 C 16.183594 12.902344 16.308594 12.769531 16.425781 12.632812 C 16.433594 12.621094 16.441406 12.613281 16.449219 12.601562 C 16.566406 12.464844 16.675781 12.320312 16.777344 12.171875 C 16.789062 12.152344 16.800781 12.132812 16.816406 12.113281 C 16.898438 11.988281 16.976562 11.859375 17.050781 11.730469 C 17.070312 11.695312 17.089844 11.664062 17.109375 11.628906 C 17.1875 11.480469 17.257812 11.332031 17.324219 11.179688 C 17.339844 11.148438 17.351562 11.113281 17.363281 11.082031 C 17.414062 10.957031 17.460938 10.828125 17.503906 10.695312 C 17.519531 10.648438 17.535156 10.605469 17.546875 10.558594 C 17.597656 10.398438 17.636719 10.238281 17.671875 10.074219 C 17.675781 10.050781 17.679688 10.027344 17.683594 10 C 17.714844 9.855469 17.734375 9.707031 17.753906 9.558594 C 17.757812 9.511719 17.761719 9.464844 17.765625 9.417969 C 17.78125 9.246094 17.792969 9.070312 17.792969 8.898438 C 17.792969 8.722656 17.78125 8.546875 17.765625 8.375 C 17.761719 8.328125 17.757812 8.28125 17.753906 8.234375 C 17.734375 8.085938 17.714844 7.9375 17.683594 7.792969 C 17.679688 7.769531 17.675781 7.742188 17.671875 7.71875 C 17.640625 7.554688 17.597656 7.394531 17.550781 7.238281 C 17.535156 7.1875 17.519531 7.144531 17.503906 7.097656 C 17.460938 6.964844 17.414062 6.839844 17.363281 6.710938 C 17.351562 6.679688 17.339844 6.644531 17.324219 6.613281 C 17.257812 6.460938 17.1875 6.3125 17.109375 6.164062 C 17.089844 6.128906 17.070312 6.097656 17.050781 6.0625 C 16.976562 5.933594 16.898438 5.804688 16.816406 5.679688 C 16.804688 5.660156 16.789062 5.640625 16.777344 5.621094 C 16.675781 5.472656 16.566406 5.328125 16.453125 5.191406 C 16.441406 5.183594 16.433594 5.171875 16.425781 5.164062 C 16.308594 5.023438 16.183594 4.890625 16.054688 4.765625 C 16.054688 4.761719 16.050781 4.761719 16.050781 4.757812 Z M 8.777344 12.664062 C 8.671875 12.574219 8.574219 12.480469 8.476562 12.378906 C 8.425781 12.332031 8.378906 12.285156 8.332031 12.234375 C 8.242188 12.136719 8.164062 12.035156 8.082031 11.933594 C 8.035156 11.875 7.988281 11.816406 7.945312 11.753906 C 7.875 11.65625 7.8125 11.550781 7.75 11.449219 C 7.707031 11.378906 7.664062 11.308594 7.625 11.234375 C 7.570312 11.132812 7.523438 11.027344 7.476562 10.925781 C 7.441406 10.84375 7.402344 10.765625 7.371094 10.6875 C 7.328125 10.578125 7.296875 10.46875 7.261719 10.355469 C 7.238281 10.273438 7.207031 10.195312 7.1875 10.109375 C 7.15625 9.984375 7.132812 9.855469 7.113281 9.730469 C 7.101562 9.65625 7.082031 9.585938 7.074219 9.511719 C 7.046875 9.308594 7.035156 9.105469 7.035156 8.898438 C 7.035156 8.6875 7.046875 8.484375 7.074219 8.28125 C 7.082031 8.207031 7.101562 8.136719 7.113281 8.0625 C 7.132812 7.933594 7.15625 7.808594 7.1875 7.683594 C 7.207031 7.597656 7.238281 7.519531 7.261719 7.433594 C 7.296875 7.324219 7.328125 7.214844 7.371094 7.105469 C 7.402344 7.023438 7.441406 6.949219 7.476562 6.867188 C 7.523438 6.761719 7.570312 6.660156 7.621094 6.558594 C 7.660156 6.484375 7.707031 6.414062 7.75 6.34375 C 7.8125 6.242188 7.875 6.136719 7.945312 6.039062 C 7.988281 5.976562 8.035156 5.917969 8.082031 5.859375 C 8.160156 5.757812 8.242188 5.65625 8.332031 5.5625 C 8.378906 5.507812 8.425781 5.460938 8.476562 5.410156 C 8.574219 5.3125 8.671875 5.21875 8.777344 5.128906 C 8.828125 5.085938 8.878906 5.046875 8.929688 5.007812 C 8.988281 4.960938 9.046875 4.921875 9.101562 4.882812 L 9.101562 12.910156 C 9.046875 12.871094 8.988281 12.832031 8.929688 12.789062 C 8.878906 12.746094 8.828125 12.707031 8.777344 12.664062 Z M 7.949219 13.035156 L 5.371094 13.035156 C 5.269531 11.714844 4.214844 10.660156 2.898438 10.558594 L 2.898438 7.234375 C 4.214844 7.132812 5.269531 6.078125 5.371094 4.757812 L 7.949219 4.757812 C 7.949219 4.761719 7.945312 4.761719 7.945312 4.761719 C 7.816406 4.890625 7.691406 5.023438 7.574219 5.160156 C 7.566406 5.171875 7.558594 5.179688 7.550781 5.191406 C 7.433594 5.328125 7.324219 5.472656 7.222656 5.621094 C 7.210938 5.640625 7.199219 5.660156 7.183594 5.679688 C 7.101562 5.804688 7.023438 5.933594 6.949219 6.0625 C 6.929688 6.097656 6.910156 6.128906 6.890625 6.164062 C 6.8125 6.3125 6.742188 6.460938 6.675781 6.613281 C 6.660156 6.644531 6.648438 6.679688 6.636719 6.710938 C 6.585938 6.835938 6.539062 6.964844 6.496094 7.097656 C 6.480469 7.144531 6.464844 7.1875 6.453125 7.234375 C 6.402344 7.394531 6.363281 7.554688 6.328125 7.71875 C 6.324219 7.742188 6.320312 7.765625 6.316406 7.792969 C 6.285156 7.9375 6.265625 8.085938 6.246094 8.234375 C 6.242188 8.28125 6.238281 8.328125 6.234375 8.375 C 6.21875 8.546875 6.207031 8.722656 6.207031 8.898438 C 6.207031 9.070312 6.21875 9.246094 6.234375 9.417969 C 6.238281 9.464844 6.242188 9.511719 6.246094 9.558594 C 6.265625 9.707031 6.285156 9.855469 6.316406 10 C 6.320312 10.023438 6.324219 10.050781 6.328125 10.074219 C 6.359375 10.238281 6.402344 10.398438 6.449219 10.558594 C 6.464844 10.605469 6.480469 10.648438 6.496094 10.695312 C 6.539062 10.828125 6.585938 10.957031 6.636719 11.082031 C 6.648438 11.113281 6.660156 11.148438 6.675781 11.179688 C 6.742188 11.332031 6.8125 11.480469 6.890625 11.628906 C 6.910156 11.664062 6.929688 11.695312 6.949219 11.730469 C 7.023438 11.859375 7.101562 11.988281 7.183594 12.113281 C 7.195312 12.132812 7.210938 12.152344 7.222656 12.171875 C 7.324219 12.320312 7.433594 12.464844 7.546875 12.601562 C 7.558594 12.609375 7.566406 12.621094 7.574219 12.628906 C 7.691406 12.769531 7.816406 12.902344 7.945312 13.027344 C 7.945312 13.03125 7.949219 13.03125 7.949219 13.035156 Z M 0.828125 2.691406 L 9.101562 2.691406 L 9.101562 3.886719 C 9.078125 3.902344 9.050781 3.914062 9.023438 3.929688 L 4.953125 3.929688 C 4.839844 3.929688 4.726562 3.980469 4.648438 4.066406 C 4.570312 4.152344 4.53125 4.265625 4.542969 4.382812 C 4.546875 4.4375 4.550781 4.496094 4.550781 4.550781 C 4.550781 5.578125 3.714844 6.414062 2.691406 6.414062 C 2.632812 6.414062 2.578125 6.410156 2.519531 6.40625 C 2.402344 6.394531 2.289062 6.433594 2.203125 6.511719 C 2.117188 6.589844 2.070312 6.699219 2.070312 6.816406 L 2.070312 10.976562 C 2.070312 11.09375 2.117188 11.203125 2.203125 11.28125 C 2.289062 11.359375 2.402344 11.398438 2.519531 11.386719 C 2.578125 11.382812 2.632812 11.378906 2.691406 11.378906 C 3.714844 11.378906 4.550781 12.214844 4.550781 13.242188 C 4.550781 13.300781 4.546875 13.355469 4.542969 13.410156 C 4.53125 13.527344 4.570312 13.640625 4.648438 13.726562 C 4.730469 13.8125 4.839844 13.863281 4.957031 13.863281 L 9.023438 13.863281 C 9.050781 13.878906 9.078125 13.890625 9.105469 13.90625 L 9.105469 15.101562 L 0.828125 15.101562 Z M 0.828125 15.929688 L 9.101562 15.929688 L 9.101562 16.34375 L 0.828125 16.34375 Z M 0.828125 17.171875 L 9.101562 17.171875 L 9.101562 17.585938 L 0.828125 17.585938 Z M 0.828125 18.414062 L 9.101562 18.414062 L 9.101562 18.828125 L 0.828125 18.828125 Z M 0.828125 19.65625 L 9.101562 19.65625 L 9.101562 20.070312 L 0.828125 20.070312 Z M 9.101562 21.308594 L 0.828125 21.308594 L 0.828125 20.898438 L 9.101562 20.898438 Z M 14.070312 21.308594 L 9.929688 21.308594 L 9.929688 15.929688 L 14.070312 15.929688 Z M 23.171875 21.308594 L 14.898438 21.308594 L 14.898438 20.898438 L 23.171875 20.898438 Z M 23.171875 20.070312 L 14.898438 20.070312 L 14.898438 19.65625 L 23.171875 19.65625 Z M 23.171875 18.828125 L 14.898438 18.828125 L 14.898438 18.414062 L 23.171875 18.414062 Z M 23.171875 17.585938 L 14.898438 17.585938 L 14.898438 17.171875 L 23.171875 17.171875 Z M 23.171875 16.34375 L 14.898438 16.34375 L 14.898438 15.929688 L 23.171875 15.929688 Z M 14.898438 15.101562 L 14.898438 13.90625 C 14.921875 13.890625 14.949219 13.878906 14.976562 13.863281 L 19.046875 13.863281 C 19.160156 13.863281 19.273438 13.8125 19.351562 13.726562 C 19.429688 13.640625 19.46875 13.527344 19.457031 13.410156 C 19.453125 13.355469 19.449219 13.300781 19.449219 13.242188 C 19.449219 12.214844 20.285156 11.378906 21.308594 11.378906 C 21.367188 11.378906 21.421875 11.382812 21.480469 11.386719 C 21.597656 11.398438 21.710938 11.359375 21.796875 11.28125 C 21.882812 11.203125 21.929688 11.09375 21.929688 10.976562 L 21.929688 6.816406 C 21.929688 6.699219 21.882812 6.589844 21.796875 6.511719 C 21.710938 6.433594 21.597656 6.394531 21.480469 6.40625 C 21.421875 6.410156 21.367188 6.414062 21.308594 6.414062 C 20.285156 6.414062 19.449219 5.578125 19.449219 4.550781 C 19.449219 4.496094 19.453125 4.4375 19.457031 4.382812 C 19.46875 4.265625 19.429688 4.152344 19.351562 4.066406 C 19.269531 3.980469 19.160156 3.929688 19.042969 3.929688 L 14.976562 3.929688 C 14.949219 3.914062 14.921875 3.902344 14.898438 3.886719 L 14.898438 2.691406 L 23.171875 2.691406 L 23.171875 15.101562 Z M 14.898438 15.101562"/>
    <path d="M2.691406 6C3.488281 6 4.136719 5.351562 4.136719 4.550781 4.136719 3.753906 3.488281 3.101562 2.691406 3.101562 1.890625 3.101562 1.242188 3.753906 1.242188 4.550781 1.242188 5.351562 1.890625 6 2.691406 6zM2.691406 3.929688C3.03125 3.929688 3.308594 4.210938 3.308594 4.550781 3.308594 4.894531 3.03125 5.171875 2.691406 5.171875 2.347656 5.171875 2.070312 4.894531 2.070312 4.550781 2.070312 4.210938 2.347656 3.929688 2.691406 3.929688zM21.308594 3.101562C20.511719 3.101562 19.863281 3.753906 19.863281 4.550781 19.863281 5.351562 20.511719 6 21.308594 6 22.109375 6 22.757812 5.351562 22.757812 4.550781 22.757812 3.753906 22.109375 3.101562 21.308594 3.101562zM21.308594 5.171875C20.96875 5.171875 20.691406 4.894531 20.691406 4.550781 20.691406 4.210938 20.96875 3.929688 21.308594 3.929688 21.652344 3.929688 21.929688 4.210938 21.929688 4.550781 21.929688 4.894531 21.652344 5.171875 21.308594 5.171875zM2.691406 11.792969C1.890625 11.792969 1.242188 12.441406 1.242188 13.242188 1.242188 14.039062 1.890625 14.691406 2.691406 14.691406 3.488281 14.691406 4.136719 14.039062 4.136719 13.242188 4.136719 12.441406 3.488281 11.792969 2.691406 11.792969zM2.691406 13.863281C2.347656 13.863281 2.070312 13.582031 2.070312 13.242188 2.070312 12.898438 2.347656 12.621094 2.691406 12.621094 3.03125 12.621094 3.308594 12.898438 3.308594 13.242188 3.308594 13.582031 3.03125 13.863281 2.691406 13.863281zM21.308594 11.792969C20.511719 11.792969 19.863281 12.441406 19.863281 13.242188 19.863281 14.039062 20.511719 14.691406 21.308594 14.691406 22.109375 14.691406 22.757812 14.039062 22.757812 13.242188 22.757812 12.441406 22.109375 11.792969 21.308594 11.792969zM21.308594 13.863281C20.96875 13.863281 20.691406 13.582031 20.691406 13.242188 20.691406 12.898438 20.96875 12.621094 21.308594 12.621094 21.652344 12.621094 21.929688 12.898438 21.929688 13.242188 21.929688 13.582031 21.652344 13.863281 21.308594 13.863281zM21.308594 13.863281"/>
</svg>

<svg xmlns="http://www.w3.org/2000/svg" width="32" height="32" viewBox="0 0 24 24">
    <path d="M14.898 1.863H0v20.274h24V1.863zm-.828.828v12.41H9.93V2.692zm1.153 2.438c.105.09.203.184.3.281.051.05.098.098.145.152.09.094.172.196.25.297.047.059.094.118.137.18.07.098.133.203.195.305.043.07.086.14.129.215.05.101.098.207.144.308.036.082.075.16.106.238.043.11.074.22.11.329.023.086.054.164.073.25.032.125.055.25.075.378.011.075.031.145.039.22.027.202.039.405.039.616 0 .207-.012.41-.04.614-.007.074-.027.144-.038.218-.02.13-.043.254-.075.38-.019.085-.05.163-.074.25-.035.109-.066.218-.11.328-.03.082-.07.156-.105.238a7.453 7.453 0 0 1-.144.308c-.04.075-.086.145-.129.215-.063.102-.125.207-.195.305-.043.062-.09.121-.137.18-.078.101-.16.203-.25.3-.047.051-.094.098-.145.149a5.12 5.12 0 0 1-.3.281c-.051.043-.102.082-.153.125-.058.043-.117.082-.172.121V4.883c.055.039.118.078.172.12.051.044.102.083.153.126zm.828-.371h2.578a2.695 2.695 0 0 0 2.473 2.476v3.325a2.695 2.695 0 0 0-2.473 2.476H16.05c0-.004.004-.004.004-.004.129-.129.254-.261.37-.398l.024-.031a4.993 4.993 0 0 0 .367-.489c.082-.125.16-.254.235-.383l.058-.101c.078-.149.149-.297.215-.45.016-.03.028-.066.04-.097.05-.125.097-.254.14-.387.016-.047.031-.09.043-.136.05-.16.09-.32.125-.485l.012-.074c.03-.145.05-.293.07-.441l.012-.141c.015-.172.027-.348.027-.52 0-.175-.012-.351-.027-.523l-.012-.14c-.02-.15-.04-.297-.07-.442l-.012-.074a4.8 4.8 0 0 0-.121-.48l-.047-.141a6.506 6.506 0 0 0-.14-.387c-.012-.031-.024-.066-.04-.098a6.746 6.746 0 0 0-.215-.449l-.058-.101a7.718 7.718 0 0 0-.235-.383c-.011-.02-.027-.04-.039-.059a5.888 5.888 0 0 0-.324-.43c-.012-.007-.02-.02-.027-.027a5.144 5.144 0 0 0-.371-.398c0-.004-.004-.004-.004-.008zm-7.274 7.906a4.128 4.128 0 0 1-.3-.285 2.522 2.522 0 0 1-.145-.145c-.09-.097-.168-.199-.25-.3-.047-.059-.094-.118-.137-.18-.07-.098-.133-.203-.195-.305-.043-.07-.086-.14-.125-.215-.055-.101-.102-.207-.148-.308-.036-.082-.075-.16-.106-.239-.043-.109-.074-.218-.11-.332-.023-.082-.054-.16-.074-.246a4.323 4.323 0 0 1-.074-.379c-.011-.074-.031-.144-.039-.218a4.576 4.576 0 0 1-.039-.614c0-.21.012-.414.04-.617.007-.074.027-.144.038-.219.02-.128.043-.253.074-.378.02-.086.051-.164.075-.25.035-.11.066-.22.11-.329.03-.082.07-.156.105-.238.046-.105.093-.207.144-.308.04-.075.086-.145.129-.215.063-.102.125-.207.195-.305.043-.062.09-.121.137-.18a3.59 3.59 0 0 1 .25-.296c.047-.055.094-.102.145-.153.097-.098.195-.191.3-.281a4.13 4.13 0 0 1 .153-.121c.058-.047.117-.086.172-.125v8.027c-.055-.039-.114-.078-.172-.12-.051-.044-.102-.083-.153-.126zm-.828.371H5.371a2.695 2.695 0 0 0-2.473-2.476V7.234a2.695 2.695 0 0 0 2.473-2.476H7.95c0 .004-.004.004-.004.004a7.112 7.112 0 0 0-.37.398l-.024.031a4.993 4.993 0 0 0-.367.489c-.082.125-.16.254-.235.383l-.058.101a6.746 6.746 0 0 0-.215.45c-.016.03-.028.066-.04.097-.05.125-.097.254-.14.387-.016.047-.031.09-.043.136-.05.16-.09.32-.125.485l-.012.074c-.03.144-.05.293-.07.441l-.012.141a5.796 5.796 0 0 0-.027.523c0 .172.012.348.027.52l.012.14c.02.149.04.297.07.442l.012.074c.031.164.074.324.121.485l.047.136c.043.133.09.262.14.387.012.031.024.066.04.098.066.152.136.3.215.449l.058.101c.074.13.153.258.235.383.011.02.027.04.039.059.101.148.21.293.324.43.012.007.02.02.027.027.117.14.242.273.371.398 0 .004.004.004.004.008zM.83 2.691h8.273v1.196c-.024.015-.051.027-.079.043h-4.07a.418.418 0 0 0-.41.453 1.865 1.865 0 0 1-1.852 2.031c-.058 0-.113-.004-.171-.008a.408.408 0 0 0-.45.41v4.16a.408.408 0 0 0 .45.41c.058-.003.113-.007.171-.007a1.865 1.865 0 0 1 1.852 2.031.408.408 0 0 0 .105.317.427.427 0 0 0 .309.136h4.066c.028.016.055.028.082.043v1.196H.828zm0 13.239h8.273v.414H.828zm0 1.242h8.273v.414H.828zm0 1.242h8.273v.414H.828zm0 1.242h8.273v.414H.828zm8.273 1.653H.828v-.41h8.274zm4.968 0H9.93v-5.38h4.14zm9.102 0h-8.274v-.41h8.274zm0-1.239h-8.274v-.414h8.274zm0-1.242h-8.274v-.414h8.274zm0-1.242h-8.274v-.414h8.274zm0-1.242h-8.274v-.414h8.274zm-8.274-1.242v-1.196c.024-.015.051-.027.079-.043h4.07a.418.418 0 0 0 .41-.453 1.865 1.865 0 0 1 1.852-2.031c.058 0 .113.004.171.008a.408.408 0 0 0 .45-.41v-4.16a.408.408 0 0 0-.45-.41c-.058.003-.113.007-.171.007a1.865 1.865 0 0 1-1.852-2.031.408.408 0 0 0-.105-.317.427.427 0 0 0-.309-.136h-4.066c-.028-.016-.055-.028-.079-.043V2.69h8.274v12.41zm0 0"/>
    <path d="M2.691 6a1.45 1.45 0 0 0 0-2.898 1.449 1.449 0 1 0 0 2.898zm0-2.07a.622.622 0 0 1 0 1.242.62.62 0 1 1 0-1.242zm0 0M21.309 3.102a1.45 1.45 0 0 0 0 2.898 1.449 1.449 0 1 0 0-2.898zm0 2.07a.622.622 0 0 1 0-1.242.62.62 0 1 1 0 1.242zm0 0M2.691 11.793a1.449 1.449 0 1 0 0 2.898 1.45 1.45 0 0 0 0-2.898zm0 2.07a.62.62 0 1 1-.002-1.244.62.62 0 0 1 .002 1.244zm0 0M21.309 11.793a1.45 1.45 0 0 0 0 2.898 1.449 1.449 0 1 0 0-2.898zm0 2.07a.622.622 0 0 1 0-1.242.62.62 0 1 1 0 1.242zm0 0"/>
</svg>
